X:1
T:Title
%%score ( 1 2 ) { 3 | 4 }
L:1/8
Q:1/4=112
M:4/4
K:Eb
V:1 treble nm="Grand Piano, Unnamed-000"
V:2 treble 
V:3 bass nm="Choir Pad, St. Peter, CM"
V:4 bass 
V:1
 [EB]2 [Ge]2 [Gd]2 [Ec]2 | [EB]2 [FB]2 [DA]2 [EG]2 | [EG]2 F-[DF] E2 [DA]2 | [EG]2 [DF]6 | %4
w: By~Alexander~Robert~Reinagle,~1836 * * *||||
 [EG]2 [EA]2 [EG]2 [Ec]2 | [EB]2 [CB]2 [DA]2 [EG]2 | [CE]2 [EG]2 [CF]2 [B,E]2 | [B,D]2 [B,E]6- | %8
w: ||||
 [B,E]2 z2 z4 |] %9
w: |
V:2
 x8 | x8 | z2 .C2 z4 | x8 | x8 | x8 | x8 | x8 | x8 |] %9
V:3
 G,2 B,2 B,2 A,2 | B,2 B,2 B,2 B,2 | B,2 C2 B,2 A,2 | B,2 B,6 | B,2 A,2 B,2 C2 | E,2 F,2 F,2 E,2 | %6
 G,2 B,2 A,2 G,2 | F,A, G,6- | G,2 z2 z4 |] %9
V:4
 E,2 E,2 G,2 z2 | G,2 D,2 B,,2 E,2 | E,2 A,2 G,2 F,2 | E,2 B,,6 | E,_D, C,2 B,,2 A,,2 | %5
 G,,2 F,,2 B,,2 C,2 | C,2 G,,2 A,,2 B,,2 | B,,2 E,6- | E,2 z2 z4 |] %9

